X:149
T:Grand Parade, The
M:6/8
L:1/8
B:Thompson's Compleat Collection of 200 Favourite Country Dances, vol. 1 (London, 1757)
Z:Transcribed and edited by Flynn Titford-Mock, 2007
Z:abc's:AK/Fiddler's Companion
K:D
d2 f agf|e2f gfe|fed edc|dAG FED|d2f agf|e2f gfe|fed edc|d3 D3:|
|:g2d cBA|B2G FED|DFD EGE|FAG FED|GBG AcA|Bed cBA|dfd edc|d3 D3:|

